X:1
T:Schottis i D-dur
R:Schottis
S:Boda spelmanslag, "Låtar på Bodamål"
O:Boda, Dalarna
Z:ABC-transkribering av Pontus Adefjord
M:2/4
L:1/16
K:D
|: fgfe d2ef | g2g2 B3d | c2+plus+e2 +plus+A2Bc | d2AG FED2 |
fgfe d2ef | g2g2 B3d | c2+plus+e2 +plus+A2Bc | d2f2 d4 :|
|: abag f2ga | b2ba gagf | efed cAce | abag f2d2 |
fgfe d2ef | g2g2 B3d | c2+plus+e2 +plus+A2Bc | d2f2 d4 :|

